X: 51
T:Treble Mr Condiff,Secundo. HA.050
M:3/4
L:1/4
Q:80
C:in Hand B
S:Henry Atkinson's original MS,Hartburn,N'umberland,1694.
O:England
A:Hartburn,Northumberland
H:1/4
Z:vmp.Chris Partington.Jan.2004
K:F
def|eef|gaf|g/a/g/f/e|def|eef|e"#"c2|d2:|!
|:fef|gfg|a/g/a/b/a/g/|f/e/f/g/f/g/|fef|gfe|f3/4g/4 e>f|f3:|]
